desktop/renderer-app/src/assets/image/no-camera-small.svg

<?xml version="1.0" encoding="UTF-8"?>
<svg width="22px" height="22px" viewBox="0 0 22 22" version="1.1" xmlns="http://www.w3.org/2000/svg" xmlns:xlink="http://www.w3.org/1999/xlink">
    <title>cameraHide</title>
    <g id="2.1" stroke="none" stroke-width="1" fill="none" fill-rule="evenodd" fill-opacity="0.24">
        <g id="组件规范" transform="translate(-1797.000000, -1541.000000)" fill="#FFFFFF" fill-rule="nonzero">
            <g id="编组-4备份-6" transform="translate(1752.000000, 1372.000000)">
                <g id="编组-19" transform="translate(8.000000, 144.000000)">
                    <g id="cameraHide" transform="translate(37.000000, 25.000000)">
                        <path d="M15.7274137,7.1873697 C16.218104,8.01033828 16.5,8.97224897 16.5,10 C16.5,12.8688125 14.3035698,15.2246211 11.5006121,15.4775233 L11.5,16.5 L13,16.5 C13.2761424,16.5 13.5,16.7238576 13.5,17 C13.5,17.2454599 13.3231248,17.4496084 13.0898756,17.4919443 L13,17.5 L9,17.5 C8.72385763,17.5 8.5,17.2761424 8.5,17 C8.5,16.7545401 8.67687516,16.5503916 8.91012437,16.5080557 L9,16.5 L10.5,16.5 L10.5003933,15.4776139 C9.66066178,15.4020021 8.8753451,15.1376511 8.18718722,14.7273049 L8.92150421,13.9922649 C9.54323703,14.3166207 10.2502032,14.5 11,14.5 C13.4852814,14.5 15.5,12.4852814 15.5,10 C15.5,9.25020325 15.3166207,8.54323703 14.9922649,7.92150421 L15.7274137,7.1873697 Z M14.4052408,5.68064455 L15.2426407,4.84314575 C15.4379028,4.6478836 15.7544853,4.6478836 15.9497475,4.84314575 C16.1233138,5.0167121 16.142599,5.2861365 16.0076029,5.48100464 L15.9497475,5.55025253 L10.2188066,11.2807747 L10.2188066,11.2807747 L9.50004507,12.0002169 L8.07765846,13.4220877 L8.07765846,13.4220877 L7.36908476,14.1312499 L6.05025253,15.4497475 C5.85499039,15.6450096 5.5384079,15.6450096 5.34314575,15.4497475 C5.1695794,15.2761811 5.15029425,15.0067567 5.2852903,14.8118886 L5.34314575,14.7426407 L6.68002512,13.404456 C5.98361557,12.5219809 5.55182441,11.4209927 5.5043672,10.2212071 L5.5,10 C5.5,6.96243388 7.96243388,4.5 11,4.5 C12.1888216,4.5 13.2895486,4.87717811 14.1890414,5.51839485 L14.4052408,5.68064455 L14.4052408,5.68064455 Z M11,5.5 C8.51471863,5.5 6.5,7.51471863 6.5,10 C6.5,11.0091952 6.83221069,11.9407984 7.39323936,12.6914169 L8.83454615,11.2501567 C8.62177745,10.8824046 8.5,10.4554236 8.5,10 C8.5,8.61928813 9.61928813,7.5 11,7.5 C11.4558403,7.5 11.8831859,7.62200038 12.2511659,7.83513037 L13.6916261,6.39339572 C12.9409715,5.83227242 12.0092889,5.5 11,5.5 Z M13.443791,9.47038237 C13.4806117,9.64108937 13.5,9.8182805 13.5,10 C13.5,11.3807119 12.3807119,12.5 11,12.5 C10.8182805,12.5 10.6410894,12.4806117 10.4703824,12.443791 L11.500703,11.4143985 C11.9263438,11.2637161 12.2637161,10.9263438 12.4143985,10.500703 L13.443791,9.47038237 Z M11,8.5 C10.1715729,8.5 9.5,9.17157288 9.5,10 C9.5,10.1751436 9.53001741,10.3432763 9.58518827,10.4995341 L11.4995341,8.58518827 C11.3432763,8.53001741 11.1751436,8.5 11,8.5 Z" id="形状结合"></path>
                    </g>
                </g>
            </g>
        </g>
    </g>
</svg>

<svg width="22" height="22" xmlns="http://www.w3.org/2000/svg"><path d="M15.727 7.187a5.5 5.5 0 0 1-4.227 8.29V16.5H13a.5.5 0 0 1 .09.992L13 17.5H9a.5.5 0 0 1-.09-.992L9 16.5h1.5v-1.022a5.466 5.466 0 0 1-2.313-.75l.735-.736a4.5 4.5 0 0 0 6.07-6.07l.735-.735Zm-1.322-1.506.838-.838a.5.5 0 0 1 .765.638l-.058.07-5.731 5.73L9.5 12l-1.422 1.421-.709.71L6.05 15.45a.5.5 0 0 1-.765-.638l.058-.07 1.337-1.338a5.474 5.474 0 0 1-1.176-3.183L5.5 10a5.5 5.5 0 0 1 8.689-4.482l.216.163ZM11 5.5a4.5 4.5 0 0 0-3.607 7.191l1.442-1.44a2.5 2.5 0 0 1 3.417-3.415l1.44-1.443A4.48 4.48 0 0 0 11 5.5Zm2.444 3.97a2.5 2.5 0 0 1-2.973 2.973l1.03-1.029c.425-.15.763-.488.913-.913l1.03-1.03ZM11 8.5a1.5 1.5 0 0 0-1.415 2L11.5 8.585A1.498 1.498 0 0 0 11 8.5Z" fill="#FFF" fill-opacity=".24"/></svg>
